!!!COM: Palestrina, Giovanni Perluigi da
!!!OPR: Missa Petra sancta
!!!OMD: Benedictus
!!!OTL: Hosanna
**kern	**kern	**kern	**kern	**kern
*Ibass	*Itenor	*Itenor	*Icalto	*Icant
!Bassus	!Tenor 2	!Tenor 1	!Altus	!Cantus
*clefF4	*clefGv2	*clefGv2	*clefG2	*clefG2
*k[]	*k[]	*k[]	*k[]	*k[]
*A:aeo	*A:aeo	*A:aeo	*A:aeo	*A:aeo
*M4/2	*M4/2	*M4/2	*M4/2	*M4/2
=39	=39	=39	=39	=39
1A	1r	1e	0r	0r
2d	1a	2f	.	.
2c#	.	2e	.	.
=40	=40	=40	=40	=40
1d	2a	1f	0r	0r
.	2a	.	.	.
2A	1a	2e	.	.
[2c	.	[2e	.	.
=41	=41	=41	=41	=41
2c]	1g	2e]	0r	0r
2B	.	2d	.	.
2A	2f	2c	.	.
2G	[2e	2B	.	.
=42	=42	=42	=42	=42
1F	2e]	2A	1a	1r
.	2d	2a	.	.
1E	1e	2a	2cc	1ee
.	.	2g#	2b	.
=43	=43	=43	=43	=43
0r	0r	1a	1cc	2ff
.	.	.	.	2ee
.	.	2d	2a	1ff
.	.	[2a	[2cc	.
=44	=44	=44	=44	=44
0r	0r	2a]	2cc]	1ee
.	.	2g	2b	.
.	.	2f	2a	2dd
.	.	2e	[2g	[2cc
=45	=45	=45	=45	=45
0r	2r	1d	4g]	2cc]
.	.	.	4f	.
.	2f	.	1f	2b
.	2a	1c	.	[1cc
.	2g	.	2e	.
=46	=46	=46	=46	=46
2r	2.a	2r	2f	1cc]
2A	.	2c	2e	.
.	4a	.	.	.
2c	2g	2e	2r	1r
2B	2G	2d	2g	.
=47	=47	=47	=47	=47
1c	0r	1e	2a	0r
.	.	.	2g	.
2G	.	[1d	2.b-	.
[2B-	.	.	.	.
.	.	.	4a	.
=48	=48	=48	=48	=48
2B-]	0r	2d]	2g	0r
2A	.	2c	2f	.
2G	.	2B-	4e	.
.	.	.	4d	.
2F	.	2A	[2d	.
=49	=49	=49	=49	=49
1E	1g	2G	2d]	1r
.	.	2g	2c#	.
1D	2b-	2g	1d	2r
.	2a	2f#	.	2dd
=50	=50	=50	=50	=50
0r	1b-	1g	0r	2dd
.	.	.	.	2ee
.	[1a	2d	.	2.ff
.	.	[2f	.	.
.	.	.	.	4ee
=51	=51	=51	=51	=51
0r	2a]	2f]	1r	2dd
.	2g	2e	.	2cc
.	2f	2d	2r	2b-
.	2e	2c	2A	[2a
=52	=52	=52	=52	=52
1r	1d	1B-	1d	2a]
.	.	.	.	2g
2r	1e	2A	2.c	1a
2A	.	2A	.	.
.	.	.	4d	.
=53	=53	=53	=53	=53
2A	2r	2c	1e	0r
2G#	2e	2B	.	.
1A	2f	1c	1r	.
.	2e	.	.	.
=54	=54	=54	=54	=54
2D	2f	2d	1a	0r
1A	4e	4c	.	.
.	4d	4d	.	.
.	2c	4e	2cc	.
.	.	4f	.	.
2G	[2d	2g	2b	.
=55	=55	=55	=55	=55
2F	4d]	2a	1cc	2r
.	4c	.	.	.
2E	1c	2g	.	2ee
1D	.	2a	1f	[1ff
.	2B	2f	.	.
=56	=56	=56	=56	=56
1C	1c	1r	2a	2ff]
.	.	.	2g	2ee
1r	1r	1d	[1a	2.ff
.	.	.	.	4ee
=57	=57	=57	=57	=57
0r	1r	2f	2a]	2dd
.	.	2e	2g	2cc
.	2r	2d	2f	2b
.	2a	2c	2e	2a
=58	=58	=58	=58	=58
0r	2a	1B	2r	1dd
.	2g#	.	2d	.
.	[1a	[1A	2d	2ff
.	.	.	2c#	2ee
=59	=59	=59	=59	=59
1D	2a]	1A]	4d	2.ff
.	.	.	4e	.
.	2d	.	4f	.
.	.	.	4g	4ee
2D	2f	1r	2a	2dd
2E	2e	.	[2g	2cc
=60	=60	=60	=60	=60
2G	2d	1r	2g]	2b
2A	2c	.	2f	1a
1E	1B	2r	1e	.
.	.	2e	.	2g#
=61	=61	=61	=61	=61
1A	[0A	2f	2r	[0a
.	.	2e	2c	.
2.F	.	[1f	2d	.
.	.	.	2c	.
4E	.	.	.	.
=62	=62	=62	=62	=62
2D	1A_	2f]	2d	1a_
2C#	.	2e	2e	.
1D	1A_	1d	1f	1a_
=63	=63	=63	=63	=63
0A	0A]	0c#	0e	0a]
==	==	==	==	==
*-	*-	*-	*-	*-
!!!CDT: 1525/^1526/-1594/2/2
!!!OCY: Italia
!!!AGN: Mass (Parody)
!!!AST: renaissance, vocal
!!!ASW: Madrigal 1561 (Palestrina)
!!!PWK: Masses, Book 10
!!!RNB: Cadence finals: D
!!!YOR: Le Opere Complete, v. 27, p. 52
!!!YOO: Rome, Italy: Fratelli Scalera
!!!END: 1992//
!!!EED: John Miller
!!!YEC: Copyright 2000, John Miller
!!!YEN: United States of America
!!!YEM: Rights to all derivative electronic formats reserved.
!!!YEM: Refer to licensing agreement for further details.
!!!YEM: This file must be accompanied by the licensing agreement.
!!!YEM: A copy of the licensing agreement may be found at http://www.music-cog.ohio-state.edu/HumdrumDatabases/Palestrina/license.txt
!!!EMD: converted to Humdrum by Bret Aarden
